assets/images/searchIcon_w.svg

<svg height="28" viewBox="0 0 28 28" width="28" xmlns="http://www.w3.org/2000/svg" xmlns:xlink="http://www.w3.org/1999/xlink"><linearGradient id="a" x1="11.000136%" x2="86.397026%" y1="13.255991%" y2="85.045305%"><stop offset="0" stop-color="#398bef"/><stop offset="1" stop-color="#1c6afd"/></linearGradient><filter id="b"><feColorMatrix in="SourceGraphic" type="matrix" values="0 0 0 0 1.000000 0 0 0 0 1.000000 0 0 0 0 1.000000 0 0 0 1.000000 0"/></filter><g fill="none" fill-rule="evenodd"><rect fill="url(#a)" height="28" rx="5" width="28"/><g filter="url(#b)"><g fill="#fff" fill-rule="nonzero" transform="translate(7.567568 9.081081)"><path d="m12.5017174 6.12072502h-12.01289085c-.26997145 0-.48882655-.2188551-.48882655-.48882655v-.9776531c0-.26997145.2188551-.48882655.48882655-.48882655h12.01289085z"/><path d="m7.84277797 10.143414-.68970236-.68970233c-.09160529-.09138316-.14308731-.21545871-.14308731-.34485118 0-.12939246.05148202-.25346802.14308731-.34485118l3.62093739-3.62093739-3.62093739-3.62093739c-.19030641-.19051801-.19030641-.49918436 0-.68970236l.68970236-.68970236c.190518-.19030641.49918435-.19030641.68970236 0l5.00034207 5.00034211-5.00034207 5.00034208c-.19051801.1903064-.49918436.1903064-.68970236 0z"/></g></g></g></svg>

<?xml version="1.0" encoding="UTF-8"?>
<svg width="28px" height="28px" viewBox="0 0 28 28" version="1.1" xmlns="http://www.w3.org/2000/svg" xmlns:xlink="http://www.w3.org/1999/xlink">
    <title>编组 8备份 7</title>
    <defs>
        <linearGradient x1="11.0001364%" y1="13.2559906%" x2="86.3970258%" y2="85.0453048%" id="linearGradient-1">
            <stop stop-color="#398BEF" offset="0%"></stop>
            <stop stop-color="#1C6AFD" offset="100%"></stop>
        </linearGradient>
        <filter id="filter-2">
            <feColorMatrix in="SourceGraphic" type="matrix" values="0 0 0 0 1.000000 0 0 0 0 1.000000 0 0 0 0 1.000000 0 0 0 1.000000 0"></feColorMatrix>
        </filter>
    </defs>
    <g id="页面-1" stroke="none" stroke-width="1" fill="none" fill-rule="evenodd">
        <g id="切图" transform="translate(-322.000000, -201.000000)">
            <g id="编组-8备份-7" transform="translate(322.000000, 201.000000)">
                <rect id="矩形" fill="url(#linearGradient-1)" x="0" y="0" width="28" height="28" rx="5"></rect>
                <g filter="url(#filter-2)" id="右箭头">
                    <g transform="translate(7.567568, 9.081081)">
                        <path d="M12.5017174,6.12072502 L0.488826548,6.12072502 C0.2188551,6.12072502 -2.68854008e-14,5.90186992 -2.68854008e-14,5.63189847 L-2.68854008e-14,4.65424537 C-2.68854008e-14,4.38427392 0.2188551,4.16541882 0.488826548,4.16541882 L12.5017174,4.16541882 L12.5017174,6.12072502 Z" id="路径" fill="#FFFFFF" fill-rule="nonzero"></path>
                        <path d="M7.84277797,10.143414 L7.15307561,9.45371167 C7.06147032,9.36232851 7.0099883,9.23825296 7.0099883,9.10886049 C7.0099883,8.97946803 7.06147032,8.85539247 7.15307561,8.76400931 L10.774013,5.14307192 L7.15307561,1.52213453 C6.9627692,1.33161652 6.9627692,1.02295017 7.15307561,0.832432167 L7.84277797,0.142729806 C8.03329597,-0.047576602 8.34196232,-0.047576602 8.53248033,0.142729806 L13.5328224,5.14307192 L8.53248033,10.143414 C8.34196232,10.3337204 8.03329597,10.3337204 7.84277797,10.143414 L7.84277797,10.143414 Z" id="路径" fill="#FFFFFF" fill-rule="nonzero"></path>
                    </g>
                </g>
            </g>
        </g>
    </g>
</svg>
